images/telegramm.svg

<svg width="24" height="24" viewBox="0 0 24 24" fill="none" xmlns="http://www.w3.org/2000/svg">
<path d="M20.0522 3.00179C19.8115 3.01931 19.5751 3.07579 19.3525 3.16904H19.3495C19.1357 3.25379 18.1195 3.68129 16.5745 4.32929L11.038 6.66104C7.06522 8.33354 3.15997 9.98054 3.15997 9.98054L3.20647 9.96254C3.20647 9.96254 2.93722 10.051 2.65597 10.2438C2.48222 10.3544 2.3327 10.499 2.21647 10.669C2.07847 10.8715 1.96747 11.1813 2.00872 11.5015C2.07622 12.043 2.42722 12.3678 2.67922 12.547C2.93422 12.7285 3.17722 12.8133 3.17722 12.8133H3.18322L6.84547 14.047C7.00972 14.5743 7.96147 17.7033 8.19022 18.424C8.32522 18.8545 8.45647 19.1238 8.62072 19.3293C8.70022 19.4343 8.79322 19.522 8.90497 19.5925C8.96307 19.6263 9.02501 19.653 9.08947 19.672L9.05197 19.663C9.06322 19.666 9.07222 19.675 9.08047 19.678C9.11047 19.6863 9.13072 19.6893 9.16897 19.6953C9.74872 19.8708 10.2145 19.5108 10.2145 19.5108L10.2407 19.4898L12.403 17.521L16.027 20.3013L16.1095 20.3365C16.8647 20.668 17.6297 20.4835 18.034 20.158C18.4412 19.8303 18.5995 19.411 18.5995 19.411L18.6257 19.3435L21.4262 4.99679C21.5057 4.64279 21.526 4.31129 21.4382 3.98954C21.3477 3.66391 21.1388 3.38385 20.8525 3.20429C20.612 3.05813 20.3332 2.98758 20.0522 3.00179ZM19.9765 4.53929C19.9735 4.58654 19.9825 4.58129 19.9615 4.67204V4.68029L17.1872 18.8778C17.1752 18.898 17.155 18.9423 17.0995 18.9865C17.041 19.033 16.9945 19.0623 16.7507 18.9655L12.3182 15.5673L9.64072 18.0078L10.2032 14.4153L17.4452 7.66529C17.7437 7.38779 17.644 7.32929 17.644 7.32929C17.665 6.98879 17.1932 7.22954 17.1932 7.22954L8.06122 12.8868L8.05822 12.8718L3.68122 11.398V11.395L3.66997 11.3928C3.67765 11.3902 3.68516 11.3872 3.69247 11.3838L3.71647 11.3718L3.73972 11.3635C3.73972 11.3635 7.64797 9.71654 11.6207 8.04404C13.6097 7.20629 15.6137 6.36254 17.155 5.71154C18.6962 5.06429 19.8355 4.58954 19.9 4.56404C19.9615 4.54004 19.9322 4.54004 19.9765 4.54004V4.53929Z" fill="#26303B"/>
</svg>

<svg width="24" height="24" fill="none" xmlns="http://www.w3.org/2000/svg"><path d="M20.052 3.002a2.23 2.23 0 0 0-.7.167h-.003c-.213.085-1.23.512-2.774 1.16l-5.537 2.332C7.065 8.334 3.16 9.981 3.16 9.981l.046-.018s-.269.088-.55.28c-.174.111-.323.256-.44.426a1.246 1.246 0 0 0-.207.832c.067.542.418.867.67 1.046.255.181.498.266.498.266h.006l3.662 1.234c.165.527 1.116 3.656 1.345 4.377.135.43.266.7.43.905.08.105.173.193.285.264.058.033.12.06.184.079l-.037-.009c.011.003.02.012.028.015.03.008.05.011.089.017.58.176 1.045-.184 1.045-.184l.027-.021 2.162-1.969 3.624 2.78.082.036c.756.331 1.52.146 1.925-.179.407-.328.566-.747.566-.747l.026-.068 2.8-14.346c.08-.354.1-.686.012-1.007-.09-.326-.3-.606-.585-.786a1.404 1.404 0 0 0-.8-.202Zm-.075 1.537c-.003.048.006.042-.015.133v.008l-2.775 14.198c-.012.02-.032.064-.088.108-.058.047-.105.076-.348-.02l-4.433-3.399-2.677 2.44.562-3.592 7.242-6.75c.299-.277.199-.336.199-.336.021-.34-.45-.1-.45-.1L8.06 12.888l-.003-.015-4.377-1.474v-.003l-.011-.002a.223.223 0 0 0 .022-.01l.024-.011.024-.008 7.88-3.32c1.99-.838 3.994-1.681 5.535-2.332A602.64 602.64 0 0 1 19.9 4.564c.062-.024.032-.024.077-.024Z" fill="#26303B"/></svg>
